!!!ONB: MCCC : IJH0436_02 : Extracted Monophonic Melody
!!!COM: Haydn, Joseph
!!!OPR: String Quartet in D minor
!!!OMV: 2
!!!SCT: Hob.III:76 ; Op.76 No.2
!!!ODT: 1796///
**kern
*thru
*k[f#c#]
*D:
*clefF
*M6/8
8a
=1
8f#
8f#
16g
32f#
32g
4a
8b
=2
4e
16d
32c#
32B
4A
8a
=3
8f#
8f#
16g
32f#
32g
4a
16.b
32ee
=4
8dd
8.cc#
32b
32cc#
8dd
8r
16.ff#
32dd
=5
8b
8b
16cc#
32b
32cc#
8.dd
32ee
32ff#
32ee
32dd
32cc#
32b
=6
16a
16g#
8g#
8ee
8dd
8cc#
16.ee
32cc#
=7
8a
8a
16.aa
32ff#
8dd
8dd
16.ff#
32dd
=8
8b
8b
16.ff#
32dd
8b
8b
8b#
=9
8cc#
16.a
32f#
16.g#
32e#
4f#
16.cc#
32a
=10
8f#
8f#
32cc#
32a
32cc#
32a
8f#
8f#
8a
=11
8f#
8f#
8a
8f#
8f#
8a
=12
8f#
8f#
16g
32f#
32g
4a
8b
=13
4e
16d
32c#
32B
16A
32B
32c#
32d
32e
32f#
32g
32a
32b
32a
32g
=14
8f#
8f#
16g
32f#
32g
8.a
16a#
16.b
32ee
=15
8dd
8.cc#
32b
32cc#
4dd
16.aa
32ff
=16
8dd
8dd
16.aa
32ff
8dd
8dd
16.ff
32dd
=17
8b-
8b-
8b-
8b-
8a
16.ee-
32cc
=18
8a
8a
8a
8a
8b-
16.dd
32b-
=19
8ff
8ff
8ff
8gg
8gg
8gg
=20
12..aa[
96aa]
32ff
32gg
32aa
32bb-
32ccc
32ddd
32eee
8fff
8r
16.ff
32dd
=21
8b-
8b-
8b-
8b-
8a
16.ee-
32cc
=22
8a
8a
8a
8a
8b-
16.dd
32b-
=23
8ff
8ff
8ff
8ff#
8ff#
8ff#
=24
8.gg
32aa
32bb
32ccc
32ddd
32eee
32fff#
8ggg
8r
8r
=25
4r
8r
4aa-
32gg
32ff
32ee-
32dd
=26
8cc
8cc
8dd
4ee-
16.g
32e-
=27
8c
8c
16.cc
32g
8e-
8e-
16.ee-
32cc
=28
8a
8a
16.cc
32a
8f#
8f#
8a
=29
8f#
8f#
8a
8f#
8f#
8a
=30
8f#
8f#
8a
8f#
8f#
8a
=31
8f#
8f#
8a
8g
8g
8a
=32
8f#
8f#
16g
32f#
32g
4a
8b
=33
4e
16d
32c#
32B
16A
32B
32c#
32d
32e
32f#
32g
32a
32b
32a
32g
=34
8f#
8f#
16g
32f#
32g
8.a
16a#
16.b
32ee
=35
8dd
8.cc#
32b
32cc#
8dd
8r
8a
=36
32f#
32d
32A
32d
32f#
32d
32f#
32d
32g
32d
32g
32d
32a
32f#
32d
32f#
32a
32f#
32d
32dd
32cc#
32b
32a
32g
=37
32f#
32e
32f#
32g#
32a
32b
32cc#
32dd
32ee
32dd
32b
32g#
32b
32a
32g#
32a
32g#
32a
32g#
32a
32g
32a
32g
32a
=38
32g
32f#
32e
32d
32c#
32d
32e
32f#
32g
32a
32b
32cc#
32dd
32ee
32ff#
32gg
32gg#
32aa
32gg#
32aa
32aa#
32bb
32aa#
32bb
=39
32aa
32bb
32aa
32bb
32ccc#
32ddd
32eee
32fff#
32ggg
32fff#
32ggg
32eee
8ddd
8r
16.ff#
32dd
=40
32b
32ff#
32dd
32cc#
32b
32ff#
32ee
32dd
32cc#
32ee
32gg
32ee
32dd
32ff#
32dd
32cc#
32b
32ff#
32gg
32ff#
32ee
32dd
32cc#
32b
=41
32a
32g#
32b
32a
32cc#
32b
32dd
32cc#
32ee
32dd
32ff#
32ee
8dd
8cc#
16.ee
32cc#
=42
32a
32g#
32a
32cc#
32a
32cc#
32ee
32cc#
32a
32aa
32gg
32ee
32dd
32cc#
32dd
32ff#
32dd
32ff#
32aa
32ff#
32gg
32ff#
32ee
32dd
=43
32cc#
32b
32a#
32b
32gg
32ff#
32ee
32dd
32cc#
32b
32a#
32b
32gg
32ff#
32ee
32dd
32cc#
32b
32a#
32b
16b#
16b#
=44
32cc#
32ff#
32aa
32gg#
32ff#
32cc#
32a
32f#
32g#
32b
32g#
32e#
8f#
8r
16.cc#
32a
=45
32f#
32c#
32A
32c#
32A
32c#
32f#
32c#
32a
32f#
32cc#
32a
32f#
32c#
32A
32c#
32A
32c#
32f#
32c#
32a
32f#
32cc#
32a
=46
32f#
32c#
32A
32c#
32f#
32c#
32A
32c#
32a
32c#
32A
32c#
32f#
32c#
32A
32c#
32f#
32c#
32A
32c#
32a
32c#
32A
32c#
=47
32f#
32d
32A
32d
32f#
32d
32f#
32d
32g
32d
32g
32d
32a
32f#
32d
32f#
32a
32f#
32d
32dd
32cc#
32b
32a
32g
=48
32f#
32e
32f#
32g#
32a
32b
32cc#
32dd
32ee
32dd
32b
32g#
32b
32a
32g#
32a
32g#
32a
32g#
32a
32g
32a
32g
32a
=49
32g
32f#
32e
32d
32c#
32d
32e
32f#
32g
32a
32b
32cc#
32dd
32ee
32ff#
32gg
32gg#
32aa
32gg#
32aa
32aa#
32bb
32aa#
32bb
=50
32aa
32bb
32aa
32bb
32ccc#
32ddd
32eee
32fff#
32ggg
32fff#
32ggg
32eee
4ddd
16.ddd
32bb
=51
8gg
8gg
16.bb
32gg
8ff#
8ff#
16.aa
32ff#
=52
8ee
8ee
8ff#
4gg
16.bb
32gg
=53
8ff#
8ff#
16.aa
32ff#
8ee
8ee
8ee#
=54
2.ff#[
=55
4ff#]
4.ee
8dd[
=56
4dd]
4cc#
8cc#
8cc#
=57
6cc
24a
24f#
24d#
24f#
24a
4cc
8r
=58
8r
8r
32ff#
32gg
32ff#
32gg
8bb
8bb
8r
=59
8r
8r
32ff#
32gg
32ff#
32gg
8bb
16r
16bb
32aa
32gg
32ff#
32ee
=60
8dd
16r
16bb
32aa
32gg
32ff#
32ee
8dd
16r
16b
32a
32g
32f#
32e
=61
8d
16r
32bb
32aa
32gg
32ff#
32ee
32dd
32cc#
32b
32a
32g
32f#
32e
32d
32c#
32B
32A
32B
32c#
=62
8d
8r
8dd
8cc#
8r
8ee
=63
8dd
8r
8dd
8a
8r
8a
=64
8f#
8r
8dd
32cc#
32dd
32ee
32ff#
32gg
32aa
32bb
32ccc#
32ddd
32eee
32fff#
32ggg
=65
8aaa
8r
8r
32a
32b
32cc#
32dd
32ee
32ff#
32gg
32aa
32bb
32ccc#
32ddd
32eee
=66
8fff#
8r
8a
8f#
8r
8a
=67
8f#
8f#
8f#
8f#
8r
8r
==
*-
